X: 15713
T: Golden Mean, The
R: reel
M: 4/4
K: Gmajor
G2 (3ABd (g4|g)fdB [eg]3 f|g2fd edBA|Bd (3ddd edBA|
FG (3GGG DG (3ABd|g2 fd [eg]3 f|g2 (3ggd gabg|ae (3eee edBA|
G2 (3GGG DG (3ABd|g2 fd [eg]3 f|g2fd edBA|Bd (3ddd edBA|
(3BAG (3GGG DG (3ABd|g2 fd [eg]3 f|g2 (3ggd gabg|ae (3eee edBA|
|:Bd (3ddd edBA|BdBA G3 D|E2 GE (3FED (D2|D) B,DE G2 AG
Bd (3ddd edBA|BdBA G2 (3ABd|b3 g a2 ba|1 ge (3eee edBA:|2 ge (3eee (3Bcd ef||
|:g2 (3ggf gabg|ae (3eee (3Bcd ef|fg (3ggd gabg|ae (3eee (3Bcd ef|
g2 (3ggd gabg|ae (3eee (3Bcd ef|gB (3BBB gB (3BBB|1 AcBG ABdf:|2 AcBG ABED||

